X:1
T:Lönsbodapolkan
R:Polka
O:Lönsboda, Skåne
M:2/4
L:1/8
K:A
|: c/B/A c/B/A | fe e/d/c | d/c/B d/c/B | dc c/B/A
c/B/A c/B/A | fe e/d/c | d/c/B d/c/B | Ac A2 :|
|:EA cB/A/ | =GB d2 | f/e/c e/d/B | dc c/B/A |
EA cB/A/ | =GB d2 | f/e/c e/d/B | Ac A2 :|

